places/22/network-server-database.svg

<svg version="1.1" xmlns="http://www.w3.org/2000/svg" viewBox="0 0 22 22">
<defs id="defs3051">
<style type="text/css" id="current-color-scheme">
.ColorScheme-Text {
color:#4d4d4d;
}
</style>
</defs>
<path style="fill:currentColor" d="m 11,3 c -4.41828,0 -8,1.34315 -8,3 v 10 c 0,1.25754 3.58172,3 8,3 4.41828,0 8,-1.79005 8,-3 v -10 c 0,-1.65685 -3.58172,-3 -8,-3 z  m 0,1 c 3.86599,0 7,0.89543 7,2 0,1.10457 -3.13401,2 -7,2 -3.86599,0 -7,-0.89543 -7,-2 0,-1.10457 3.13401,-2 7,-2 Z  m 7,3.4453 v 3.55469 c -0.524987,0.426371 -3.60206,2.03157 -7,2 -3.39793,-0.031572 -6.5,-1.5 -7,-2 v -3.54883 c 1.40812,0.95541 4.08901,1.54859 7,1.54883 2.91429,-0.00142 5.59598,-0.597015 7,-1.55469 Z  m 0,4.8057 v 3.749 c -0.5,0.5 -3.5,2 -7,2 -3.5,0 -6.51536,-1.48103 -7,-2 v -3.749 c 1.40812,0.95541 4.08901,1.74876 7,1.749 2.91429,-0.0014 5.59598,-0.791328 7,-1.749 z " class="ColorScheme-Text"/>
</svg>

<svg xmlns="http://www.w3.org/2000/svg" viewBox="0 0 22 22">
  <defs id="defs3051">
    <style type="text/css" id="current-color-scheme">
      .ColorScheme-Text {
        color:#4d4d4d
      }
      </style>
  </defs>
    <path
       style="fill:currentColor;fill-opacity:1;stroke:none" 
       d="M 11 3 A 8 3.0000005 0 0 0 3 6 L 3 16 A 8 3.0000005 0 0 0 11 19 A 8 3.0000005 0 0 0 19 16 L 19 6 A 8 3.0000005 0 0 0 11 3 z M 11 4 A 7 2 0 0 1 18 6 A 7 2 0 0 1 11 8 A 7 2 0 0 1 4 6 A 7 2 0 0 1 11 4 z M 18 7.4453125 L 18 11 A 7 2 0 0 1 11 13 A 7 2 0 0 1 4 11 L 4 7.4511719 A 8 3.0000005 0 0 0 11 9 A 8 3.0000005 0 0 0 18 7.4453125 z M 18 12.445312 L 18 16 A 7 2 0 0 1 11 18 A 7 2 0 0 1 4 16 L 4 12.451172 A 8 3.0000005 0 0 0 11 14 A 8 3.0000005 0 0 0 18 12.445312 z "
       class="ColorScheme-Text" />
</svg>
